src/svgs/text-justify-right.svg

<?xml version="1.0" encoding="UTF-8" standalone="no"?>
<!-- Created with Inkscape (http://www.inkscape.org/) -->

<svg
   xmlns:dc="http://purl.org/dc/elements/1.1/"
   xmlns:cc="http://creativecommons.org/ns#"
   xmlns:rdf="http://www.w3.org/1999/02/22-rdf-syntax-ns#"
   xmlns:svg="http://www.w3.org/2000/svg"
   xmlns="http://www.w3.org/2000/svg"
   xmlns:sodipodi="http://sodipodi.sourceforge.net/DTD/sodipodi-0.dtd"
   xmlns:inkscape="http://www.inkscape.org/namespaces/inkscape"
   width="20"
   height="20"
   id="svg4863"
   version="1.1"
   inkscape:version="0.48.5 r10040"
   sodipodi:docname="text-justify-right.svg"
   inkscape:export-filename="/Users/saman/work_repos/base/latest/icons/text-vertical-center.png"
   inkscape:export-xdpi="180"
   inkscape:export-ydpi="180">
  <defs
     id="defs4865" />
  <sodipodi:namedview
     id="base"
     pagecolor="#ffffff"
     bordercolor="#666666"
     borderopacity="1.0"
     inkscape:pageopacity="0.0"
     inkscape:pageshadow="2"
     inkscape:zoom="25.258065"
     inkscape:cx="10"
     inkscape:cy="13.5"
     inkscape:document-units="px"
     inkscape:current-layer="layer1"
     showgrid="false"
     inkscape:snap-bbox="true"
     inkscape:snap-nodes="true"
     inkscape:window-width="1608"
     inkscape:window-height="970"
     inkscape:window-x="181"
     inkscape:window-y="0"
     inkscape:window-maximized="0"
     showguides="false"
     inkscape:guide-bbox="true">
    <inkscape:grid
       type="xygrid"
       id="grid4886"
       empspacing="5"
       visible="true"
       enabled="true"
       snapvisiblegridlinesonly="true" />
    <sodipodi:guide
       orientation="0,1"
       position="22,15"
       id="guide6423" />
    <sodipodi:guide
       orientation="0,1"
       position="21,5"
       id="guide6425" />
    <sodipodi:guide
       orientation="0,1"
       position="33,95"
       id="guide7108" />
  </sodipodi:namedview>
  <metadata
     id="metadata4868">
    <rdf:RDF>
      <cc:Work
         rdf:about="">
        <dc:format>image/svg+xml</dc:format>
        <dc:type
           rdf:resource="http://purl.org/dc/dcmitype/StillImage" />
        <dc:title />
      </cc:Work>
    </rdf:RDF>
  </metadata>
  <g
     inkscape:label="Layer 1"
     inkscape:groupmode="layer"
     id="layer1"
     transform="translate(0,-1032.3622)">
    <g
       transform="matrix(1.9999805,0,0,1.7500055,-539.99976,-1081.7773)"
       id="g5863" />
    <g
       id="g7094" />
    <g
       transform="matrix(-1,0,0,1,165,110.00003)"
       id="g7285-6">
      <path
         style="color:#000000;fill:#000000;fill-opacity:1;fill-rule:nonzero;stroke:none;stroke-width:2;marker:none;visibility:visible;display:inline;overflow:visible;enable-background:accumulate"
         d="M 7 5 C 6.446 5 6 5.446 6 6 C 6 6.554 6.446 7 7 7 L 15 7 C 15.554 7 16 6.554 16 6 C 16 5.446 15.554 5 15 5 L 7 5 z M 5 9 C 4.446 9 4 9.446 4 10 C 4 10.554 4.446 11 5 11 L 15 11 C 15.554 11 16 10.554 16 10 C 16 9.446 15.554 9 15 9 L 5 9 z M 11 13 C 10.446 13.000003 10 13.446 10 14 C 10 14.554 10.446 15.000003 11 15 L 15 15 C 15.554 14.999997 16 14.554 16 14 C 16 13.446 15.554 12.999997 15 13 L 11 13 z "
         transform="matrix(-1,0,0,1,165,922.36217)"
         id="rect6914-4" />
    </g>
  </g>
</svg>

<?xml version="1.0" encoding="UTF-8" standalone="yes"?>
<svg viewBox="0 0 20 20">
  <g>
    <path d="M7,7h8c0.6,0,1-0.4,1-1s-0.4-1-1-1H7C6.4,5,6,5.4,6,6S6.4,7,7,7z"/>
    <path d="M15,13h-4c-0.6,0-1,0.4-1,1s0.4,1,1,1h4c0.6,0,1-0.4,1-1S15.6,13,15,13z"/>
    <path d="M15,9H5c-0.6,0-1,0.4-1,1s0.4,1,1,1h10c0.6,0,1-0.4,1-1S15.6,9,15,9z"/>
  </g>
</svg>
